Suru++-Ubuntu/apps/scalable/gtkdialog.svg

<svg width="256" height="256" style="enable-background:new" version="1.0" xmlns="http://www.w3.org/2000/svg" xmlns:xlink="http://www.w3.org/1999/xlink">
 <defs>
  <filter id="filter925" x="-.02" y="-.03" width="1.046" height="1.05" style="color-interpolation-filters:sRGB">
   <feGaussianBlur stdDeviation="2.32"/>
  </filter>
  <filter id="filter931" x="-.01" y="-.01" width="1.023" height="1.025" style="color-interpolation-filters:sRGB">
   <feGaussianBlur stdDeviation="1.16"/>
  </filter>
  <linearGradient id="linearGradient1108" x1="296" x2="296" y1="-212" y2="236" gradientUnits="userSpaceOnUse">
   <stop style="stop-color:#ffffff" offset="0"/>
   <stop style="stop-color:#ffffff;stop-opacity:.09803922" offset=".125"/>
   <stop style="stop-color:#000000;stop-opacity:.09803922" offset=".925"/>
   <stop style="stop-color:#000000;stop-opacity:.49803922" offset="1"/>
  </linearGradient>
  <clipPath id="clipPath1082-3">
   <path d="M 361.9375,-212 C 507.2348,-212 528,-191.28677 528,-46.125 V 70.125 C 528,215.28618 507.2348,236 361.9375,236 H 214.0625 C 68.7652,236 48,215.28618 48,70.125 V -46.125 C 48,-191.28677 68.7652,-212 214.0625,-212 Z" style="fill:#8c59d9"/>
  </clipPath>
 </defs>
 <g transform="translate(0,-44)">
  <path d="m162.53675 62.431991c72.64865 0 83.03125 10.356615 83.03125 82.937499v58.125c0 72.58059-10.3826 82.9375-83.03125 82.9375h-73.9375c-72.64865 0-83.03125-10.35691-83.03125-82.9375v-58.125c0-72.580884 10.3826-82.937499 83.03125-82.937499z" style="filter:url(#filter925);opacity:.2"/>
  <path d="m162.53675 61.431991c72.64865 0 83.03125 10.356615 83.03125 82.937499v58.125c0 72.58059-10.3826 82.9375-83.03125 82.9375h-73.9375c-72.64865 0-83.03125-10.35691-83.03125-82.9375v-58.125c0-72.580884 10.3826-82.937499 83.03125-82.937499z" style="filter:url(#filter931);opacity:.1"/>
  <path d="m124.69691 172.7777v-112.34571h37.83984c72.64865 0 83.03125 10.35662 83.03125 82.937499v29.40821z" style="fill:#d00000"/>
  <path transform="translate(0,44)" d="m125.13245 16.431991h37.4043c72.64865 0 83.03125 10.356615 83.03125 82.937499v58.125c0 72.58059-10.3826 82.9375-83.03125 82.9375h-73.9375c-5.358172 0-10.377632-0.05634-15.079198-0.18983" style="fill:none"/>
  <path transform="translate(0,44)" d="m88.599248 16.431991h2e-6 36.5332" style="fill:none"/>
  <path transform="translate(0,44)" d="m53.959503 17.866191c9.585545-1.0701 21.018123-1.4342 34.639745-1.4342" style="fill:none"/>
  <path transform="translate(0,44)" d="m5.8763131 176.09872c-0.2192763-5.69526-0.3083132-11.88294-0.3083132-18.60423v-58.125c0-6.721313 0.0890369-12.909016 0.3083132-18.6043" style="fill:none"/>
  <path transform="translate(0,44)" d="m176.94922 240.08594h-102.76172c4.701565 0.13348 9.053938 0.3457 14.412109 0.3457h73.937501c5.35817 0 9.71054-0.21222 14.41211-0.3457z" style="fill:#8c59d9"/>
  <path d="m162.53675 284.432c72.64865 0 83.03125-10.35662 83.03125-82.9375v-29.4082h-240v29.4082c0 72.58088 10.3826 82.9375 83.03125 82.9375z" style="fill:#f7f7f7"/>
  <path d="m88.163703 60.471402c-9.08108 0-17.189181 0.160989-24.425781 0.585937-3.6183 0.212474-7.019664 0.490956-10.214843 0.847657-3.195181 0.356701-6.185032 0.792106-8.982422 1.318359-2.7974 0.526252-5.401232 1.144104-7.826172 1.865234-2.42495 0.72113-4.670227 1.544994-6.748047 2.486328-2.07783 0.941335-3.988101 2.000636-5.744141 3.1875-1.75604 1.186865-3.358769 2.501264-4.818359 3.958985-1.45959 1.45772-2.776364 3.058597-3.964844 4.8125-1.18847 1.753902-2.248716 3.660917-3.191406 5.736328-0.94269 2.07541-1.767984 4.317989-2.4902351 6.740234-0.7222399 2.422245-1.3400669 5.025904-1.8671869 7.820316-0.52713 2.7944-0.962963 5.78076-1.320313 8.97265-0.35734 3.19189-0.636709 6.58842-0.849609 10.20313-0.11035 1.8736-0.0756 4.33185-0.152344 6.32422v46.44922h119.12891v-111.3086z" style="fill:#080808"/>
  <path transform="translate(0,44)" d="m5.5683594 128.08594v29.4082c0 62.87772 7.8685096 79.0324 57.185547 82.23438 0.689094 0.04651 1.388407 0.09135 2.09375 0.13281 7.083807 0.39918 14.921385 0.57031 23.751953 0.57031h36.097661v-112.3457h-119.12891z" style="fill:#f1f133"/>
  <path transform="matrix(.5 0 0 .5 -18.432 166.43199)" d="M 361.9375,-212 C 507.2348,-212 528,-191.28677 528,-46.125 V 70.125 C 528,215.28618 507.2348,236 361.9375,236 H 214.0625 C 68.7652,236 48,215.28618 48,70.125 V -46.125 C 48,-191.28677 68.7652,-212 214.0625,-212 Z" clip-path="url(#clipPath1082-3)" style="fill:none;opacity:.4;stroke-linecap:round;stroke-linejoin:round;stroke-width:8;stroke:url(#linearGradient1108)"/>
 </g>
</svg>

<svg xmlns="http://www.w3.org/2000/svg" xmlns:xlink="http://www.w3.org/1999/xlink" width="256" height="256" version="1.0" style="enable-background:new">
 <defs>
  <filter style="color-interpolation-filters:sRGB" id="filter925" width="1.046" height="1.05" x="-.02" y="-.03">
   <feGaussianBlur stdDeviation="2.32"/>
  </filter>
  <filter style="color-interpolation-filters:sRGB" id="filter931" width="1.023" height="1.025" x="-.01" y="-.01">
   <feGaussianBlur stdDeviation="1.16"/>
  </filter>
  <linearGradient id="linearGradient1108" x1="296" x2="296" y1="-212" y2="236" gradientUnits="userSpaceOnUse" xlink:href="#linearGradient1013"/>
  <linearGradient id="linearGradient1013">
   <stop offset="0" style="stop-color:#ffffff"/>
   <stop style="stop-color:#ffffff;stop-opacity:0.09803922" offset=".125"/>
   <stop style="stop-color:#000000;stop-opacity:0.09803922" offset=".925"/>
   <stop offset="1" style="stop-color:#000000;stop-opacity:0.49803922"/>
  </linearGradient>
  <clipPath id="clipPath1082-3" clipPathUnits="userSpaceOnUse">
   <path d="M 361.9375,-212 C 507.2348,-212 528,-191.28677 528,-46.125 V 70.125 C 528,215.28618 507.2348,236 361.9375,236 H 214.0625 C 68.7652,236 48,215.28618 48,70.125 V -46.125 C 48,-191.28677 68.7652,-212 214.0625,-212 Z" style="fill:#8c59d9"/>
  </clipPath>
 </defs>
 <g transform="translate(0,-44)">
  <g>
   <g>
    <path d="m 162.53675,62.431991 c 72.64865,0 83.03125,10.356615 83.03125,82.937499 v 58.125 c 0,72.58059 -10.3826,82.9375 -83.03125,82.9375 h -73.9375 c -72.64865,0 -83.0312501,-10.35691 -83.0312501,-82.9375 v -58.125 c 0,-72.580884 10.3826001,-82.937499 83.0312501,-82.937499 z" style="opacity:0.2;filter:url(#filter925)"/>
    <path style="opacity:0.1;filter:url(#filter931)" d="m 162.53675,61.431991 c 72.64865,0 83.03125,10.356615 83.03125,82.937499 v 58.125 c 0,72.58059 -10.3826,82.9375 -83.03125,82.9375 h -73.9375 c -72.64865,0 -83.0312501,-10.35691 -83.0312501,-82.9375 v -58.125 c 0,-72.580884 10.3826001,-82.937499 83.0312501,-82.937499 z"/>
   </g>
   <g>
    <path style="fill:#d00000" d="M 124.69691,172.7777 V 60.431991 h 37.83984 c 72.64865,0 83.03125,10.35662 83.03125,82.937499 v 29.40821 z"/>
    <path style="fill:none" d="M 125.13245 16.431991 L 162.53675 16.431991 L 162.53675 16.431991 C 235.1854 16.431991 245.568 26.788606 245.568 99.36949 L 245.568 157.49449 C 245.568 230.07508 235.1854 240.43199 162.53675 240.43199 L 88.59925 240.43199 C 83.241078 240.43199 78.221618 240.37565 73.520052 240.24216" transform="translate(0,44)"/>
    <path style="fill:none" d="M 88.599248 16.431991 C 88.599248 16.431991 88.599249 16.431991 88.59925 16.431991 L 125.13245 16.431991" transform="translate(0,44)"/>
    <path style="fill:none" d="M 53.959503 17.866191 C 63.545048 16.796091 74.977626 16.431991 88.599248 16.431991" transform="translate(0,44)"/>
    <path style="fill:none" d="M 5.8763131 176.09872 C 5.6570368 170.40346 5.5679999 164.21578 5.5679999 157.49449 L 5.5679999 99.36949 C 5.5679999 92.648177 5.6570368 86.460474 5.8763131 80.76519" transform="translate(0,44)"/>
    <path style="fill:#8c59d9" d="M 176.94922 240.08594 L 74.1875 240.08594 C 78.889065 240.21942 83.241438 240.43164 88.599609 240.43164 L 162.53711 240.43164 C 167.89528 240.43164 172.24765 240.21942 176.94922 240.08594 z" transform="translate(0,44)"/>
    <path style="fill:#f7f7f7" d="m 162.53675,284.432 c 72.64865,0 83.03125,-10.35662 83.03125,-82.9375 V 172.0863 H 5.5680001 v 29.4082 c 0,72.58088 10.3825999,82.9375 83.0312499,82.9375 z"/>
    <path style="fill:#080808" d="m 88.163703,60.471402 c -9.08108,0 -17.189181,0.160989 -24.425781,0.585937 -3.6183,0.212474 -7.019664,0.490956 -10.214843,0.847657 -3.195181,0.356701 -6.185032,0.792106 -8.982422,1.318359 -2.7974,0.526252 -5.401232,1.144104 -7.826172,1.865234 -2.42495,0.72113 -4.670227,1.544994 -6.748047,2.486328 -2.07783,0.941335 -3.988101,2.000636 -5.744141,3.1875 -1.75604,1.186865 -3.358769,2.501264 -4.818359,3.958985 -1.45959,1.45772 -2.776364,3.058597 -3.964844,4.8125 -1.18847,1.753902 -2.248716,3.660917 -3.191406,5.736328 -0.94269,2.07541 -1.767984,4.317989 -2.4902351,6.740234 -0.7222399,2.422245 -1.3400669,5.025904 -1.8671869,7.820316 -0.52713,2.7944 -0.962963,5.78076 -1.320313,8.97265 -0.35734,3.19189 -0.636709,6.58842 -0.849609,10.20313 -0.11035,1.8736 -0.0756,4.33185 -0.152344,6.32422 V 171.78 H 124.69691 V 60.471402 Z"/>
    <path style="fill:#f1f133" d="M 5.5683594 128.08594 L 5.5683594 157.49414 C 5.5683594 220.37186 13.436869 236.52654 62.753906 239.72852 C 63.443 239.77503 64.142313 239.81987 64.847656 239.86133 C 71.931463 240.26051 79.769041 240.43164 88.599609 240.43164 L 124.69727 240.43164 L 124.69727 128.08594 L 5.5683594 128.08594 z" transform="translate(0,44)"/>
   </g>
   <g>
    <path d="M 361.9375,-212 C 507.2348,-212 528,-191.28677 528,-46.125 V 70.125 C 528,215.28618 507.2348,236 361.9375,236 H 214.0625 C 68.7652,236 48,215.28618 48,70.125 V -46.125 C 48,-191.28677 68.7652,-212 214.0625,-212 Z" clip-path="url(#clipPath1082-3)" transform="matrix(0.5,0,0,0.5,-18.432,166.43199)" style="opacity:0.4;fill:none;stroke:url(#linearGradient1108);stroke-width:8;stroke-linecap:round;stroke-linejoin:round"/>
   </g>
  </g>
 </g>
</svg>
